logos/mailjet.svg

<?xml version="1.0" encoding="UTF-8"?>
<svg width="512px" height="127px" viewBox="0 0 512 127" version="1.1" xmlns="http://www.w3.org/2000/svg" preserveAspectRatio="xMidYMid">
    <title>Mailjet</title>
    <g>
        <path d="M498.923061,47.1202111 L498.923061,95.9155673 L486.710712,95.9155673 L486.710712,47.0661741 L478.389024,47.0661741 L478.389024,34.9078628 L486.764749,34.9078628 L486.710712,15.8328232 L498.923061,15.8328232 L498.923061,34.9078628 L512,34.9078628 L512,47.0661741 L498.923061,47.0661741 L498.923061,47.1202111 Z M424.676306,60.3592612 C425.54104,54.4154265 429.060031,49.1866427 434.240844,46.1475462 C439.378058,43.2544097 445.657953,43.2749322 450.776148,46.2015831 C456.003787,49.1382528 459.546364,54.3620523 460.340686,60.3052243 L424.676306,60.3052243 L424.676306,60.3592612 Z M469.959261,51.5512401 C467.623319,46.1477668 463.800422,41.5190631 458.935726,38.2041161 C454.101528,34.8970711 448.365191,33.1610746 442.508496,33.2327177 C436.942691,33.2327177 431.863219,34.691715 427.162005,37.5556728 C417.58919,43.5256728 411.815501,54.0493472 411.923588,65.3306596 C411.815501,76.611972 417.58919,87.1356464 427.162005,93.1056464 C435.195626,98.1642411 445.213909,98.9130825 453.91029,95.1050132 C457.482814,93.5732507 460.729338,91.3722178 463.474828,88.6205805 C466.259816,85.8566173 468.528946,82.6176158 470.175409,79.0560422 L455.693509,79.0560422 C454.396623,80.5690765 452.883588,81.8659631 451.154406,82.8926649 C443.300497,87.3807824 433.317629,85.1023397 428.188707,77.6510818 C426.572778,75.240505 425.486171,72.5147787 425.000528,69.6536148 L472.661108,69.6536148 C473.376118,63.4867507 472.44385,57.2405522 469.959261,51.5512401 L469.959261,51.5512401 Z M402.521161,19.9396306 C402.521161,23.5208839 399.617982,26.4240633 396.036728,26.4240633 C392.455475,26.4240633 389.552296,23.5208839 389.552296,19.9396306 C389.552296,16.3583773 392.455475,13.4551979 396.036728,13.4551979 C399.617982,13.4551979 402.521161,16.3583773 402.521161,19.9396306 M376.043061,126.23029 L376.043061,114.071979 C380.954949,114.098493 385.524037,111.557834 388.093298,107.371398 C389.336148,105.317995 389.930554,103.048443 389.930554,100.562744 L389.930554,34.9618997 L402.142902,34.9618997 L402.142902,100.616781 C402.129405,107.504759 399.35383,114.099541 394.437792,118.924165 C389.521754,123.748789 382.876042,126.400105 375.989024,126.284327 M362.479789,95.8074934 L374.6381,95.8074934 L374.6381,4.48506596 L362.533826,4.48506596 L362.533826,95.8074934 L362.479789,95.8074934 Z M347.619631,19.9396306 C347.619631,23.5208839 344.716451,26.4240633 341.135198,26.4240633 C337.553945,26.4240633 334.650765,23.5208839 334.650765,19.9396306 C334.650765,16.3583773 337.553945,13.4551979 341.135198,13.4551979 C344.716451,13.4551979 347.619631,16.3583773 347.619631,19.9396306 M334.974987,95.8615303 L347.187335,95.8615303 L347.187335,34.9618997 L334.974987,34.9618997 L334.974987,95.8615303 Z M288.178997,85.6485488 C291.548793,85.7252795 294.863359,84.7836416 297.689499,82.9467018 C300.49942,81.1094459 302.60686,78.6237467 304.173931,75.5976781 C305.686966,72.5175726 306.443483,69.1132454 306.443483,65.3846966 C306.443483,61.6021108 305.686966,58.1977836 304.173931,55.1176781 C302.72466,52.1214533 300.481952,49.5797187 297.689499,47.7686544 C291.712173,44.141919 284.213526,44.141919 278.236201,47.7686544 C272.072529,51.4808978 268.347392,58.1902608 268.455515,65.3846966 C268.444467,72.5815258 272.221602,79.2530952 278.398311,82.9467018 C281.42438,84.7839578 284.666596,85.6485488 288.178997,85.6485488 Z M319.73657,34.9618997 L319.73657,95.8615303 L307.416148,95.8615303 L307.416148,86.5671768 C303.367208,93.4265504 295.925909,97.5606052 287.96285,97.3745646 C270.320613,97.1999789 256.044857,82.9722087 255.810871,65.3306596 C255.957732,47.6348009 270.266991,33.3255419 287.96285,33.1786807 C295.948276,33.0148559 303.394838,37.1932043 307.416148,44.0941425 L307.416148,34.9078628 L319.682533,34.9078628 L319.73657,34.9618997 Z M153.032612,34.9618997 L165.298997,34.9618997 L165.298997,41.9867018 C166.595884,40.1494459 168.000844,38.7444855 169.351768,37.6097098 C172.218626,35.2847097 175.820743,34.0584572 179.510712,34.1513456 C183.995778,34.1513456 187.994512,35.1780475 191.506913,37.2314512 C195.019314,39.2308179 197.991346,42.0947757 200.368971,45.7692876 C204.72269,38.4503631 212.658267,34.0188075 221.173193,34.1513456 C226.252665,34.1513456 230.791768,35.4482322 234.844538,38.0420053 C238.871014,40.6194771 242.121047,44.2430771 244.246966,48.5251715 C246.46248,52.9021636 247.597256,57.7114512 247.597256,62.9530343 L247.597256,95.8615303 L235.384908,95.8615303 L235.384908,62.9530343 C235.384908,59.8729288 234.844538,57.0630079 233.655726,54.5773087 C232.565106,52.1531771 230.825992,50.0774608 228.63029,48.5792084 C226.414688,47.0843719 223.791347,46.3105806 221.119156,46.3636939 C218.309235,46.3636939 215.823536,47.0661741 213.553984,48.5251715 C211.33847,50.0382058 209.555251,52.0375726 208.312401,54.5773087 C207.069551,57.1170449 206.475145,59.9269657 206.475145,62.9530343 L206.475145,95.8615303 L194.262797,95.8615303 L194.262797,62.9530343 C194.282859,60.0530478 193.635752,57.1872896 192.371504,54.5773087 C191.174293,52.1404532 189.345594,50.0691728 187.075884,48.5792084 C184.831893,47.102006 182.197069,46.3303789 179.510712,46.3636939 C176.808865,46.3636939 174.377203,47.1202111 172.269763,48.6872823 C170.108285,50.2543536 168.379103,52.3617942 167.136253,54.9555673 C165.891787,57.6278805 165.263893,60.5457397 165.298997,63.4934037 L165.298997,95.8615303 L153.032612,95.8615303 L153.032612,34.9618997 L153.032612,34.9618997 Z" fill="#131B20"></path>
        <polygon fill="#9585F4" points="1.42483504e-14 48.5251715 46.2556201 69.491504 55.5499736 60.2511873 31.8817942 49.4978364 105.263958 21.398628 77.0566755 94.4565699 66.3573615 71.0045383 57.008971 80.2988918 57.4953034 81.3796306 77.9753034 126.284327 126.77066 -7.12417519e-15"></polygon>
    </g>
</svg>

<svg preserveAspectRatio="xMidYMid" viewBox="0 0 512 127" xmlns="http://www.w3.org/2000/svg">
  <path fill="#131B20" d="M498.923 47.12v48.796h-12.212v-48.85h-8.322V34.908h8.376l-.054-19.075h12.212v19.075H512v12.158h-13.077v.054Zm-74.247 13.24a19.778 19.778 0 0 1 9.565-14.212 16.751 16.751 0 0 1 16.535.054 19.075 19.075 0 0 1 9.565 14.103h-35.665v.054Zm45.283-8.809a31.071 31.071 0 0 0-11.023-13.347 28.477 28.477 0 0 0-16.428-4.971c-5.565 0-10.645 1.459-15.346 4.323a32.368 32.368 0 0 0-15.238 27.775 32.368 32.368 0 0 0 15.238 27.775 28.64 28.64 0 0 0 26.748 1.999 30.477 30.477 0 0 0 9.565-6.484 32.963 32.963 0 0 0 6.7-9.565h-14.481a18.223 18.223 0 0 1-4.54 3.837c-7.854 4.488-17.836 2.21-22.965-5.242A20.534 20.534 0 0 1 425 69.654h47.66a35.124 35.124 0 0 0-2.702-18.103ZM402.521 19.94a6.484 6.484 0 1 1-12.969 0 6.484 6.484 0 0 1 12.97 0m-26.479 106.29v-12.158a14.05 14.05 0 0 0 12.05-6.7c1.243-2.054 1.838-4.324 1.838-6.81v-65.6h12.212v65.655a25.722 25.722 0 0 1-26.154 25.667m-13.51-30.477h12.16V4.485h-12.105v91.322h-.054ZM347.62 19.94a6.484 6.484 0 1 1-12.968 0 6.484 6.484 0 0 1 12.969 0m-12.645 75.922h12.212v-60.9h-12.212v60.9ZM288.18 85.649c3.37.076 6.684-.865 9.51-2.702 2.81-1.838 4.918-4.323 6.485-7.35 1.513-3.08 2.27-6.484 2.27-10.212 0-3.783-.757-7.187-2.27-10.267a18.21 18.21 0 0 0-6.485-7.35 18.75 18.75 0 0 0-19.453 0 20.21 20.21 0 0 0-9.78 17.617 20.426 20.426 0 0 0 9.942 17.562c3.026 1.837 6.269 2.702 9.781 2.702Zm31.558-50.687v60.9h-12.32v-9.295a21.993 21.993 0 0 1-19.454 10.808C270.32 97.2 256.045 82.972 255.81 65.33c.147-17.696 14.456-32.005 32.152-32.152a21.993 21.993 0 0 1 19.453 10.915v-9.186h12.267l.054.054Zm-166.704 0H165.3v7.025a22.96 22.96 0 0 1 4.053-4.377 15.509 15.509 0 0 1 10.159-3.459c4.485 0 8.484 1.027 11.996 3.08 3.512 2 6.484 4.864 8.862 8.538a23.776 23.776 0 0 1 20.804-11.618c5.08 0 9.619 1.297 13.672 3.891a26.37 26.37 0 0 1 9.402 10.483c2.215 4.377 3.35 9.186 3.35 14.428v32.909h-12.212V62.953c0-3.08-.54-5.89-1.73-8.376a14.428 14.428 0 0 0-5.025-5.998 12.969 12.969 0 0 0-7.51-2.215c-2.81 0-5.296.702-7.566 2.161a15.444 15.444 0 0 0-5.242 6.052c-1.242 2.54-1.837 5.35-1.837 8.376v32.909h-12.212V62.953c.02-2.9-.627-5.766-1.891-8.376a15.184 15.184 0 0 0-5.296-5.998 13.455 13.455 0 0 0-7.565-2.215c-2.702 0-5.134.756-7.241 2.323-2.162 1.567-3.89 3.675-5.134 6.269a19.67 19.67 0 0 0-1.837 8.537v32.369h-12.266v-60.9Z"/>
  <path fill="#9585F4" d="m0 48.525 46.256 20.967 9.294-9.24-23.668-10.754 73.382-28.1-28.207 73.059-10.7-23.452-9.348 9.294.486 1.08 20.48 44.905L126.771 0z"/>
</svg>
